assets/telega.svg

<svg width="33" height="34" viewBox="0 0 33 34" fill="none" xmlns="http://www.w3.org/2000/svg">
<g clip-path="url(#clip0_529_1119)">
<path d="M16.4171 33.2224C25.4074 33.2224 32.6955 25.9343 32.6955 16.944C32.6955 7.95364 25.4074 0.665527 16.4171 0.665527C7.42675 0.665527 0.138641 7.95364 0.138641 16.944C0.138641 25.9343 7.42675 33.2224 16.4171 33.2224Z" fill="url(#paint0_linear_529_1119)"/>
<path fill-rule="evenodd" clip-rule="evenodd" d="M7.50691 16.7718C12.2524 14.7043 15.4168 13.3412 17.0001 12.6827C21.5208 10.8024 22.4602 10.4757 23.0725 10.465C23.2071 10.4626 23.5082 10.496 23.7033 10.6542C23.8679 10.7878 23.9132 10.9684 23.9349 11.0951C23.9566 11.2218 23.9836 11.5104 23.9622 11.7359C23.7172 14.3099 22.6572 20.5563 22.1179 23.4392C21.8897 24.6591 21.4404 25.0681 21.0054 25.1082C20.0601 25.1952 19.3422 24.4834 18.4267 23.8833C16.9939 22.9441 16.1845 22.3595 14.7938 21.443C13.1867 20.3839 14.2285 19.8018 15.1445 18.8505C15.3842 18.6015 19.5493 14.813 19.6299 14.4693C19.64 14.4264 19.6493 14.2661 19.5541 14.1815C19.459 14.0969 19.3185 14.1259 19.2171 14.1489C19.0734 14.1815 16.7846 15.6943 12.3508 18.6873C11.7011 19.1334 11.1127 19.3507 10.5854 19.3394C10.0042 19.3268 8.88616 19.0107 8.05501 18.7405C7.03557 18.4092 6.22534 18.234 6.29589 17.6712C6.33264 17.3781 6.73631 17.0783 7.50691 16.7718Z" fill="white"/>
</g>
<defs>
<linearGradient id="paint0_linear_529_1119" x1="16.4171" y1="0.665527" x2="16.4171" y2="32.981" gradientUnits="userSpaceOnUse">
<stop stop-color="#9AABFF"/>
<stop offset="1" stop-color="#4262FF"/>
</linearGradient>
<clipPath id="clip0_529_1119">
<rect width="32.5569" height="32.5569" fill="white" transform="translate(0.139038 0.665527)"/>
</clipPath>
</defs>
</svg>

<svg width="33" height="34" fill="none" xmlns="http://www.w3.org/2000/svg"><g clip-path="url(#a)"><path d="M16.417 33.222c8.99 0 16.279-7.288 16.279-16.278 0-8.99-7.289-16.278-16.279-16.278S.14 7.954.14 16.944c0 8.99 7.288 16.278 16.278 16.278Z" fill="url(#b)"/><path fill-rule="evenodd" clip-rule="evenodd" d="M7.507 16.772c4.745-2.068 7.91-3.43 9.493-4.09 4.52-1.88 5.46-2.206 6.073-2.217.134-.002.435.031.63.19.165.133.21.313.232.44.022.127.049.415.027.64-.245 2.575-1.305 8.821-1.844 11.704-.228 1.22-.678 1.63-1.113 1.67-.945.086-1.663-.626-2.578-1.226-1.433-.939-2.242-1.523-3.633-2.44-1.607-1.06-.566-1.641.35-2.593.24-.248 4.405-4.037 4.486-4.38.01-.044.02-.204-.076-.289-.095-.084-.235-.055-.337-.032-.144.033-2.432 1.545-6.866 4.538-.65.446-1.238.664-1.766.652-.58-.012-1.699-.328-2.53-.598-1.02-.332-1.83-.507-1.76-1.07.038-.293.441-.593 1.212-.9Z" fill="#fff"/></g><defs><linearGradient id="b" x1="16.417" y1=".666" x2="16.417" y2="32.981" gradientUnits="userSpaceOnUse"><stop stop-color="#9AABFF"/><stop offset="1" stop-color="#4262FF"/></linearGradient><clipPath id="a"><path fill="#fff" transform="translate(.139 .666)" d="M0 0h32.557v32.557H0z"/></clipPath></defs></svg>
